X: 346
T: Scherzo	 Op. 54
C: Fryderyk Chopin
%%abc-version 2.0
%%abcx-abcm2ps-target-version 5.9.1 (29 Sep 2008)
%%abc-creator hum2abc beta
%%abcx-conversion-date 2021/10/03 11:23:35
%%abc-edited-by Jędrzej Mróz
%%abc-edited-by Antoni Szymański
%%abc-edited-by Emilia Ziętek
%%abcx-initial-encoding-date 2019-01-29
%%humdrum-veritas 1889450206
%%humdrum-veritas-data 4225902677
%%linebreak <none>
%%barnumbers 0
L: 1/4
M: 3/4
N: Derived from 054-1-BH.krn
Q: "Presto."
%%staves {1 2}
V: 1 clef=treble
V: 2 clef=bass
K: E
[V:1] B,3 | 
[V:2] B,,3 | 
[V:1] C3 | 
[V:2] C,3 | 
[V:1] G,3 | 
[V:2] G,,3 | 
[V:1] C3 | 
[V:2] C,3 | 
[V:1] [B,3A,3F,3]- | 
[V:2] [B,,3D,,3]- | 
[V:1] [B,3A,3F,3]- | 
[V:2] [B,,3D,,3]- | 
[V:1] [B,3A,3F,3]- | 
[V:2] [B,,3D,,3]- | 
[V:1] [B,3-A,3F,3] | 
[V:2] [B,,3D,,3] | 
[V:1] B,3 | 
[V:2] B,,,zz | 
[V:1] [A3D3] | 
[V:2] [B,3F,3B,,3] | 
[V:1] [GE]z/ [F/B,/][EB,] | 
[V:2] [B,E,]z/ [A,/E,/][G,E,] | 
[V:1] [G3E3] | 
[V:2] [B,3E,3] | 
[V:1] [F3E3^A,3]- | 
[V:2] [F,3C,3]- | 
[V:1] [F3E3A,3]- | 
[V:2] [F,3C,3]- | 
[V:1] [F3E3A,3]- | 
[V:2] [F,3C,3]- | 
[V:1] [F3E3A,3] | 
[V:2] [F,3C,3] | 
[V:1] [B,2G,2].[EB,] | 
[V:2] B,,2G, | 
[V:1] .[GE].[BG].[eB] | 
[V:2] B,EG | 
[V:1] [g3e3] | 
[V:2] B3 | 
[V:1] [c'3^^f3] | 
[V:2] [e3^A3] | 
[V:1] .[b^f].[g=d].[ac] | 
[V:2] [dB][B^E][AF] | 
[V:1] .[fc].[g^B].[ec] | 
[V:2] [A^D][GG,][GC] | 
[V:1] [c3G3] | 
[V:2] [E3C3] | 
[V:1] [d3B3] | 
[V:2] [F3B,3] | 
[V:1] [eG]zz | 
[V:2] [B,E,]zz | 
[V:1] B,3- | 
[V:2] B,,3- | 
[V:1] B,3 | 
[V:2] B,,3 | 
[V:1] G,E3/B/ | 
[V:2] E,,B,,3/B,/ | 
[V:1] B3- | 
[V:2] B,3- | 
[V:1] B3- & A2G | 
[V:2] B,3- & A,2G, | 
[V:1] B3- & G3 | 
[V:2] B,3- & G,3 | 
[V:1] B3 & F2G | 
[V:2] B,3 & F,2G, | 
[V:1] [B3E3-B,3] | 
[V:2] B,,3 & E,,3- | 
[V:1] [c3E3-C3] | 
[V:2] C,3 & E,,3- | 
[V:1] [G3E3-G,3] | 
[V:2] G,,3 & E,,3- | 
[V:1] [c3E3C3] | 
[V:2] C,3 & E,,3 | 
[V:1] [B3A3F3B,3]- | 
[V:2] [F,3B,,3D,,3]- | 
[V:1] [B3A3F3B,3]- | 
[V:2] [F,3B,,3D,,3]- | 
[V:1] [B3A3F3B,3]- | 
[V:2] [F,3B,,3D,,3]- | 
[V:1] [B3A3F3B,3-] | 
[V:2] [F,3B,,3-D,,3] | 
[V:1] B,3 | 
[V:2] B,,3 & B,,,zz | 
[V:1] [A3D3] | 
[V:2] [B,3F,3B,,3] | 
[V:1] [GE]z/ [F/B,/][EB,] | 
[V:2] [B,E,]z/ [A,/E,/][G,E,] | 
[V:1] [G3E3] | 
[V:2] [B,3E,3] | 
[V:1] [E3B,3G,3]- | 
[V:2] [E,3=D,3]- | 
[V:1] [E3B,3G,3]- | 
[V:2] [E,3=D,3]- | 
[V:1] [E3B,3G,3]- | 
[V:2] [E,3=D,3]- | 
[V:1] [E3B,3G,3]- | 
[V:2] [E,3=D,3] | 
[V:1] [E2B,2G,2].[EB,] | 
[V:2] =D,,zG, | 
[V:1] .[GE].[BG].[eB] | 
[V:2] B,EG | 
[V:1] [g3e3] | 
[V:2] B3 | 
[V:1] [c'3f3] | 
[V:2] [=d3A3] | 
[V:1] .[bf].[ge].[ae] | 
[V:2] [=dG][dB][cA] | 
[V:1] .[f=d].[eB].[cA] | 
[V:2] [A=D][GE][EA,] | 
[V:1] [A3F3] | 
[V:2] [=D3A,3=D,3] | 
[V:1] [B3E3] | 
[V:2] [=D3G,3E,3-] | 
[V:1] .[cAEC]zz | 
[V:2] .[A,E,A,,]zz | 
[V:1] !accent!E3- | 
[V:2] E,3- | 
[V:1] E3 | 
[V:2] E,3 | 
[V:1] CA3/e/ | 
[V:2] A,,E,3/E/ | 
[V:1] e3 | 
[V:2] E3 | 
[V:1] d2c | 
[V:2] D2C | 
[V:1] c3 | 
[V:2] C3 | 
[V:1] c3 | 
[V:2] C3 | 
[V:1] {/c}Fzz | 
[V:2] [EA,]zz | 
[V:1] ^B/c/d/c/g/f/ | 
[V:2] z3[K:clef=treble] | 
[V:1] g/f/^e/f/d'/c'/ | 
[V:2] !accent![FEA,]zz | 
[V:1] ^a/b/d'/e'/e'' | 
[V:2] !accent![GEB,]zz | 
[V:1] d''/^b'/d''/c''/a'/e'/ | 
[V:2] BAc & [E3C3] | 
[V:1] d'/c'/a/e/d/c/ | 
[V:2] ezz[K:clef=bass] | 
[V:1] A/E/D/C/A,/E,/ | 
[V:2] z3 | 
[V:1] z3 | 
[V:2] .A,,,zz | 
[V:1] {/C2A2}e3 | 
[V:2] {/A,,2E,2}E3 | 
[V:1] d2c | 
[V:2] D2C | 
[V:1] g3 | 
[V:2] G3 | 
[V:1] fe^B | 
[V:2] FE^B, | 
[V:1] e3 | 
[V:2] E3 | 
[V:1] d2c | 
[V:2] D2C | 
[V:1] c3 | 
[V:2] C3 | 
[V:1] c3 | 
[V:2] C3 | 
[V:1] {/c}Fzz | 
[V:2] .[E^A,]zz | 
[V:1] ^B/c/d/c/g/f/ | 
[V:2] z3[K:clef=treble] | 
[V:1] g/f/^e/f/d'/c'/ | 
[V:2] !accent![FE^A,]zz | 
[V:1] ^a/b/d'/e'/e'' | 
[V:2] !accent![GEB,]zz | 
[V:1] d''/^b'/d''/c''/^a'/e'/ | 
[V:2] B^Ac & [E3C3] | 
[V:1] d'/c'/^a/e/d/c/ | 
[V:2] ezz[K:clef=bass] | 
[V:1] ^A/E/D/C/^A,/E,/ | 
[V:2] z3 | 
[V:1] z3 | 
[V:2] .F,,,zz | 
[V:1] {/^A,2 A,2E2^A2-}[e3A3-] | 
[V:2] F,,2C, | 
[V:1] d2c & A3 | 
[V:2] F,3- | 
[V:1] {/^A-}!arpeggio!g3 & !arpeggio!A3- | 
[V:2] E3 & F,3- | 
[V:1] f2e & A3 | 
[V:2] D2C & F,3 | 
[V:1] e3 & ^A3- | 
[V:2] !arpeggio!G3 & !arpeggio!F,3- | 
[V:1] d2c & A3 | 
[V:2] F2E & F,3- | 
[V:1] c3 & ^A3 | 
[V:2] E3 & F,3 | 
[V:1] [c3F3] | 
[V:2] [^A,3E,3] | 
[V:1] .[fBF]zz | 
[V:2] .[B,D,]zz | 
[V:1] ^e/f/g/f/e/f/ | 
[V:2] F3 | 
[V:1] ^^f/g/^a/g/f/g/ | 
[V:2] ^A,3 & [F,3E,3] | 
[V:1] ^^g/^a/b/a/g/a/ | 
[V:2] D2C & [F,3E,3] | 
[V:1] b/g'/f'/^e'/=e'/d'/ | 
[V:2] B,3 & [F,D,]zz | 
[V:1] c'/b/^a/g/f/^e/ | 
[V:2] G3 | 
[V:1] =e/d/c/B/^A/G/ | 
[V:2] !arpeggio!E3 & !arpeggio![^A,3-F,3-C,3] | 
[V:1] F/ ^^F/^A/G/^F/E/ | 
[V:2] [A,3F,3] | 
[V:1] Dzz | 
[V:2] [F,B,,]zz | 
[V:1] d'/c'/b/^a/g/f/ | 
[V:2] z3 | 
[V:1] ^e/d/c/B/^A/G/ | 
[V:2] !arpeggio![B,3^E,3G,,3] | 
[V:1] F/^E/D/C/B,/G,/ | 
[V:2] Czz | 
[V:1] F,3- | 
[V:2] !accent![D,3F,,3]- | 
[V:1] F,3- | 
[V:2] [D,3F,,3-] | 
[V:1] [C3^A,3] & F,3- | 
[V:2] [E,3F,,3-] | 
[V:1] [D2B,2]{/F}[E^A,] & F,3- | 
[V:2] D,2C, & F,,3 | 
[V:1] [DB,F,]zz | 
[V:2] B,,zz | 
[V:1] ^E/F/G/F/E/F/ | 
[V:2] !accent!F,3- | 
[V:1] ^^F/G/^A/G/F/G/ | 
[V:2] F,3 & E,,3- | 
[V:1] ^^G/^A/B/A/G/A/ | 
[V:2] !accent!F,3- & E,,3 | 
[V:1] B/g/f/^e/=e/d/ | 
[V:2] !arpeggio!F,3 & !arpeggio![B,,3D,,3] | 
[V:1] c/B/^A/G/F/^E/ | 
[V:2] ^^F,3 | 
[V:1] =E/D/C/B,/^A,/G,/ | 
[V:2] !arpeggio!C,,xx & !arpeggio!^A,,3 | 
[V:1] F,/^^F,/^A,/G,/^F,/E,/ | 
[V:2] [E,3^A,,3] | 
[V:1] .D,xx | 
[V:2] [=A,,^B,,,]zz[K:clef=treble] | 
[V:1] d''/f'/^^f'/g'/a'/d'/ | 
[V:2] d'/f/^^f/g/a/d/ | 
[V:1] e'/^e'/f'/^b/c'/^^c'/ | 
[V:2] e/^e/f/^B/c/^^c/ | 
[V:1] d'/f/^^f/g/a/d/ | 
[V:2] d/F/^^F/G/A/D/ | 
[V:1] e/^e/f/^B/c/^^c/ | 
[V:2] E/^E/F/^B,/C/^^C/[K:clef=bass] | 
[V:1] d/F/^^F/G/A/^B,/ | 
[V:2] D/F,/^^F,/G,/A,/^B,,/ | 
[V:1] C/^^C/D/F,/^^F,/G,/ | 
[V:2] C,/^^C,/D,/F,,/^^F,,/G,,/ | 
[V:1] A,/G,/^^F,/G,/B,/A,/ | 
[V:2] A,,/G,,/^^F,,/G,,/B,,/A,,/ | 
[V:1] G,zz | 
[V:2] G,,zz | 
[V:1] [GF^B,G,]zz | 
[V:2] [G,,G,,,]zz | 
[V:1] z3 | 
[V:2] z3 | 
[V:1] [f3d3G3F3]- | 
[V:2] [^B,3G,3D,3]- | 
[V:1] [f2d2G2F2]z/ [f/G/F/] | 
[V:2] [B,2G,2D,2]z/ [^B,/G,/D,/] | 
[V:1] [e2c2G2E2][dGD] | 
[V:2] [C2G,2E,2][^B,G,F,] | 
[V:1] [d3G3D3] | 
[V:2] [^B,3G,3F,3] | 
[V:1] [d3G3D3] | 
[V:2] [^B,3G,3F,3] | 
[V:1] [d2G2F2][ecGE] | 
[V:2] [G,,2G,,,2][C,C,,] | 
[V:1] [d3B3G3D3] | 
[V:2] [G,3G,,3] | 
[V:1] D3- | 
[V:2] [B,2G,2][^A,F,] & D,3- | 
[V:1] D3 | 
[V:2] [B,3G,3] & [D,3G,,3] | 
[V:1] [c3B3G3C3] | 
[V:2] [E,3E,,3] | 
[V:1] [g3e3B3G3] | 
[V:2] [C,,3C,,,3] | 
[V:1] [c3B3G3C3] | 
[V:2] [E,,3E,,,3] | 
[V:1] [d3^A3F3E3] | 
[V:2] [F,,3F,,,3] | 
[V:1] .[BD]zz | 
[V:2] .[B,,B,,,]zz | 
[V:1] [B,3-G,3E,3] | 
[V:2] [B,,3-E,,3] | 
[V:1] [B,3F,3D,3] | 
[V:2] [B,,3F,,3] | 
[V:1] EDC & [G,3E,3] | 
[V:2] [B,,3E,,3] | 
[V:1] [B,3G,3E,3] | 
[V:2] [B,,3B,,,3]- | 
[V:1] [D3B,3F,3] | 
[V:2] [B,,3B,,,3] | 
[V:1] [d'3d3]- | 
[V:2] D3- | 
[V:1] [d'3d3] | 
[V:2] D3 | 
[V:1] [D3D,3] | 
[V:2] [D,,3^^F,,,3-] | 
[V:1] [E3E,3] | 
[V:2] [E,,3F,,,3-] | 
[V:1] [^^C3^^C,3] | 
[V:2] [^^C,,3F,,,3-] | 
[V:1] [D3D,3] | 
[V:2] [D,,3F,,,3] | 
[V:1] [D3C3^^F,3D,3]- | 
[V:2] [D,,3^A,,,3]- | 
[V:1] [D3C3F,3D,3]- | 
[V:2] [D,,3A,,,3]- | 
[V:1] [D3C3F,3D,3]- | 
[V:2] [D,,3A,,,3]- | 
[V:1] [D3-C3F,3D,3] ||  
[V:2] [D,,3^^A,,,3] ||  
[V:1]  [K:Ab] [E3D3G,3E,3] [I:setbarnb 162]| 
[V:2]  [K:Ab] .E,,,zz | 
[V:1] [d3G3] | 
[V:2] F3 & E,3 | 
[V:1] [cA]z/ [B/E/][AE] | 
[V:2] [EA,]z/ [D/A,/][CA,] | 
[V:1] [c3A3] | 
[V:2] [E3A,3] | 
[V:1] [B3A3=D3]- | 
[V:2] [B,3F,3]- | 
[V:1] [B3A3=D3]- | 
[V:2] [B,3-F,3] | 
[V:1] [B3A3=D3]- | 
[V:2] B,3- & G,2F, | 
[V:1] [B3A3=D3] | 
[V:2] B,3 & C,2B,, | 
[V:1] z.[EC].[AE] | 
[V:2] .E,,zC | 
[V:1] .[cA].[ec].[ae] | 
[V:2] EAc | 
[V:1] .[c'3a3] | 
[V:2] e3 | 
[V:1] .[f'3_c'3] | 
[V:2] [a3=d3] | 
[V:1] .[e'b].[c'_g].[d'f] | 
[V:2] [ge][e=A][dB] | 
[V:1] .[b_f].[c'e].[ae] | 
[V:2] [d=G][c_A][c=F] | 
[V:1] [f3d3] | 
[V:2] [A3B,3] | 
[V:1] [e3B3] | 
[V:2] [G3E3] | 
[V:1] [cA]zz | 
[V:2] [EA,]zz | 
[V:1] !accent!E3- | 
[V:2] E,3- | 
[V:1] E3 | 
[V:2] E,3 | 
[V:1] CA3/e/ | 
[V:2] A,,E,3/E/ | 
[V:1] e3 | 
[V:2] E3 | 
[V:1] d2c | 
[V:2] D2C | 
[V:1] c3 | 
[V:2] C3 | 
[V:1] c3 | 
[V:2] C3 | 
[V:1] [c3G3-C3] | 
[V:2] C,3 & =E,,3- | 
[V:1] [d3G3-D3] | 
[V:2] D,3 & =E,,3- | 
[V:1] [=B3G3-=B,3] | 
[V:2] =B,,3 & =E,,3- | 
[V:1] [c3G3C3] | 
[V:2] C,3 & =E,,3 | 
[V:1] [c3B3=E3C3]- | 
[V:2] [G,3C,3G,,3]- | 
[V:1] [c3B3=E3C3]- | 
[V:2] [G,3C,3G,,3]- | 
[V:1] [c3B3=E3C3]- | 
[V:2] [G,3C,3G,,3]- | 
[V:1] [c3B3=E3C3] | 
[V:2] [G,3C,3G,,3] | 
[V:1] z3 | 
[V:2] .C,,zz | 
[V:1] [B3=E3] | 
[V:2] [=D3C,3] | 
[V:1] [=AF]z/ [G/C/][FC] | 
[V:2] [CF,]z/ [B,/F,/][=A,F,] | 
[V:1] [=A3F3] | 
[V:2] [C3F,3] | 
[V:1] !accent![G3F3]- ||  
[V:2] [=B,3=D,3]- ||  
[V:1]  [K:E] [=G3=F3] | 
[V:2]  [K:E] [B,3=D,3]- | 
[V:1] [^G3^E3] | 
[V:2] [B,3=D,3] | 
[V:1] [A3^F3^B,3] | 
[V:2] =D,,3 | 
[V:1] [^AFC][C^A,].[FC] | 
[V:2] C,,C,A, | 
[V:1] .[^AF].[cA].[fc] | 
[V:2] CF^A | 
[V:1] [^a3f3] | 
[V:2] c3 | 
[V:1] [d'3=a3] | 
[V:2] [f3^B3] | 
[V:1] .[c'g].[^a=e].[bd] | 
[V:2] [^ec][^^Fc][BG] | 
[V:1] .[gd].[^a^^c].[fd] | 
[V:2] [B^E][^A^A,][AD] | 
[V:1] [d3^A3] | 
[V:2] [D3F3] | 
[V:1] [^e3c3] | 
[V:2] [G3C3] | 
[V:1] .[fd]zz | 
[V:2] [A^B,]zz | 
[V:1] !accent!A,3- | 
[V:2] A,,3- | 
[V:1] A,2G,/=G,/ | 
[V:2] A,,2G,,/=G,,/ | 
[V:1] F,/=F,/E,/D,/=D,/C,/ | 
[V:2] F,,/=F,,/E,,/D,,/=D,,/C,,/ | 
[V:1] ^B,,zz | 
[V:2] ^B,,,zz | 
[V:1] d3 | 
[V:2] D3 | 
[V:1] F2G | 
[V:2] F,2G, | 
[V:1] B2A | 
[V:2] B,2A, | 
[V:1] [G3^E3-B,3-] | 
[V:2] !accent!C,,^B,,,/C,,/^B,,/C,/ | 
[V:1] [A3E3B,3] | 
[V:2] =D,/C,/^B,,/C,/=D/C/ | 
[V:1] Gx2 & B,A,/C/A/G/ | 
[V:2] C,zz | 
[V:1] F/^^F/G/A/^A/B/ | 
[V:2] [F3-C3A,3] | 
[V:1] ^B/c/^^F/G/e/d/ | 
[V:2] FEC, & [C2G,2]x | 
[V:1] c/d/e/^e/f/^^f/ | 
[V:2] .[ECG,]zz | 
[V:1] g/a/b/a/f'/e'/ | 
[V:2] E=D.F,, & [A,2F,2]x | 
[V:1] =d'/e'/f'/=g'/^g'/a'/ | 
[V:2] .[=DA,F,]zz | 
[V:1] ^f'/g'/^a'/g'/^e''/d''/ | 
[V:2] !arpeggio![C3^E,3G,,3] | 
[V:1] c''/^b'/^a'/g'/f'/^e'/ | 
[V:2] G,3 | 
[V:1] d'/c'/^b/^a/g/^^f/ | 
[V:2] ^E3 | 
[V:1] f/^e/d/c/^B/^A/ | 
[V:2] F3 | 
[V:1] G/^A/^B/c/d/^e/ | 
[V:2] {/G,,}^E3 & [^B,3G,3F,3]- | 
[V:1] f/g/^b/^a/g/f/ | 
[V:2] D3 & [B,3G,3F,3] | 
[V:1] ^e/g/^e'/^b/d'/c'/ | 
[V:2] !arpeggio!D^EG, & !arpeggio![G,C,]x2 | 
[V:1] g/^e/d/c/G/C/ | 
[V:2] Czz | 
[V:1] [^A3^^F3-C3-] | 
[V:2] !accent!D,,^^C,,/D,,/^^C,/D,/ | 
[V:1] [B3F3C3] | 
[V:2] E,/D,/^^C,/D,/E/D/ | 
[V:1] ^AB,/D/B/A/ & ^^F3 | 
[V:2] D,zz[K:clef=treble] | 
[V:1] G/=A/^A/B/^B/c/ | 
[V:2] [G3-D3-B,3] | 
[V:1] ^^c/d/^A/d/^a/g/ | 
[V:2] GF[K:clef=bass]x & [D2^A,2].D, | 
[V:1] f/g/^a/b/^b/c'/ | 
[V:2] .[FD^A,]zz | 
[V:1] ^^c'/d'/e'/b/g'/f'/ | 
[V:2] FE.G,, & [B,2G,2]x | 
[V:1] e'/f'/g'/^^g'/^a'/b'/ ||  
[V:2] .[EB,E,]zz ||  
[V:1]  [K:Eb] =a'/b'/c''/b'/e''/c''/ [I:setbarnb 242]| 
[V:2]  [K:Eb] !arpeggio![E3G,3B,,3] | 
[V:1] b'/c''/b'/=a'/_a'/g'/ | 
[V:2] B,3 | 
[V:1] f'/e'/d'/c'/b/=a/ | 
[V:2] G3 | 
[V:1] _a/g/f/e/d/c/ | 
[V:2] A3 | 
[V:1] B/c/d/e/f/g/ | 
[V:2] {/B,,}[G3=D3-B,3-A,3-] | 
[V:1] a/b/d'/c'/b/a/ | 
[V:2] [F3D3B,3A,3] | 
[V:1] g/b/g'/d'/f'/e'/ | 
[V:2] FGB, & [FB,E,]x2 | 
[V:1] b/g/e/B/E ||  
[V:2] Ezz ||  
[V:1]  [K:E] f3/g3/ & f/A/B/g/A/B/ [I:setbarnb 250]| 
[V:2]  [K:E] B,,DB, | 
[V:1] e3/f3/ & e/G/B/f/G/^A/ | 
[V:2] E,EC & E,3 | 
[V:1] d3/e3/ & d/F/^A/e/F/G/ | 
[V:2] F,DB, & F,3 | 
[V:1] c3/d3/ & c/E/G/d/E/F/ | 
[V:2] F,,^A,F, | 
[V:1] c3/B3/ & c/E/F/B/D/F/ | 
[V:2] B,,B,F, | 
[V:1] B/d/f/b/b'/g'/ | 
[V:2] DB,[K:clef=treble]F | 
[V:1] f'/c'/b/g/f/c/ | 
[V:2] !accent!dzz | 
[V:1] B/G/F/C/!accent!B, | 
[V:2] z3[K:clef=bass] | 
[V:1] bxx & f3/g3/ | 
[V:2] .B,,,DB, | 
[V:1] e3/f3/ & e/G/B/f/G/^A/ | 
[V:2] E,EC & E,3 | 
[V:1] fx2 & d3/e3/ | 
[V:2] F,DB, & F,3 | 
[V:1] c3/d3/ & c/E/G/d/E/F/ | 
[V:2] .F,,^A,F, | 
[V:1] c3/B3/ & c/E/F/B/D/F/ | 
[V:2] B,,B,F, | 
[V:1] B/d/f/b/b'/g'/ | 
[V:2] DB,[K:clef=treble]F | 
[V:1] f'/c'/b/g/f/c/ | 
[V:2] !accent!fzz | 
[V:1] B/G/F/C/!accent!B, | 
[V:2] z3[K:clef=bass] | 
[V:1] b/ x/x2 & f3/g3/ | 
[V:2] .B,,,DB, | 
[V:1] e>bx & e/G/B/b/G/B/ | 
[V:2] E,EC & E,3 | 
[V:1] f3/e3/ & d/F/^A/e/F/G/ | 
[V:2] F,DB, & F,3 | 
[V:1] c>fx & c/E/G/f/E/F/ | 
[V:2] .F,,^A,F,- | 
[V:1] Bx/cx/ & B/D/F/c/D/E/ | 
[V:2] F,2G,- & B,,3- | 
[V:1] Ax/dx/ & A/C/E/d/C/D/ | 
[V:2] G,2F,- & B,,3- | 
[V:1] Gx/Ax/ & G/B,/D/A/B,/C/ | 
[V:2] F,2E,- & B,,3- | 
[V:1] Fx/Bx/ & F/A,/C/B/A,/B,/ | 
[V:2] E,2D, & B,,3- | 
[V:1] B,3 | 
[V:2] A,G,F, & [B,,3E,,3]- | 
[V:1] C3 | 
[V:2] G,F,E, & [B,,3E,,3]- | 
[V:1] G,3 | 
[V:2] F,E,D, & [B,,3E,,3]- | 
[V:1] C3 | 
[V:2] E,D,C, & [B,,3E,,3] | 
[V:1] !accent![B,3A,3F,3]- | 
[V:2] [B,,3-D,,3] | 
[V:1] [B,3A,3F,3]- | 
[V:2] [B,,3-E,,3] | 
[V:1] [B,3A,3F,3]- | 
[V:2] [B,,3-C,,3] | 
[V:1] [B,3-A,3-F,3] | 
[V:2] [B,,3D,,3] | 
[V:1] [B,3-A,3D,3] | 
[V:2] .B,,,zz | 
[V:1] [A3D3] | 
[V:2] [B,3F,3B,,3] | 
[V:1] [GE]z/ [F/B,/][EB,] | 
[V:2] [B,E,]z/ [A,/E,/][G,E,] | 
[V:1] [G3E3] | 
[V:2] [B,3E,3] | 
[V:1] [F3E3^A,3]- | 
[V:2] F,3- & C,3 | 
[V:1] [F3E3A,3]- | 
[V:2] F,3- & ^B,,2C, | 
[V:1] [F3E3A,3]- | 
[V:2] F,3- & D,2C, | 
[V:1] [F3E3A,3] | 
[V:2] F,3 & G,,2F,, | 
[V:1] z.[B,G,].[EB,] | 
[V:2] .B,,,B,,G, | 
[V:1] .[GE].[BG].[eB] | 
[V:2] B,EG | 
[V:1] [g3e3] | 
[V:2] B3 | 
[V:1] [c'3^^f3] | 
[V:2] [e3^A3] | 
[V:1] .[b^f].[g=d].[ac] | 
[V:2] [dB][B^E][AF] | 
[V:1] .[fc].[g^B].[ec] | 
[V:2] [AD][GG,][GC] | 
[V:1] [c3G3] | 
[V:2] [E3C3] | 
[V:1] [d3B3] | 
[V:2] [F3B,3] | 
[V:1] [eG]zz | 
[V:2] [B,E,]zz | 
[V:1] !accent!B,3- | 
[V:2] B,,3- | 
[V:1] B,3 | 
[V:2] B,,3 | 
[V:1] G,E3/B/ | 
[V:2] E,,B,,3/B,/ | 
[V:1] B3- | 
[V:2] B,3 | 
[V:1] B3- & A2G | 
[V:2] B,3- & A,2G, | 
[V:1] B3 & G3 | 
[V:2] B,3 & G,3 | 
[V:1] cd[eG] & F2x | 
[V:2] CDE & F,2G, | 
[V:1] [B3E3B,3] | 
[V:2] B,,3 & E,,3- | 
[V:1] [c3E3C3] | 
[V:2] C,3 & E,,3 | 
[V:1] [G3E3G,3] | 
[V:2] G,,3 & E,,3- | 
[V:1] {/D}[dD][c3/C3/][B/B,/] | 
[V:2] D,C,3/B,,/ & E,,2x | 
[V:1] [B3A3F3B,3]- | 
[V:2] B,,3- & D,,3 | 
[V:1] [B3A3F3B,3]- | 
[V:2] B,,3- & E,,3 | 
[V:1] [B3A3F3B,3]- | 
[V:2] B,,3- & C,,3 | 
[V:1] [B3A3F3B,3] | 
[V:2] B,,3 & D,,C,,3/B,,,/ | 
[V:1] B,3 | 
[V:2] B,,3 & B,,,zz | 
[V:1] [A3D3] | 
[V:2] [B,3F,3B,,3] | 
[V:1] [GE]z/ [F/B,/][EB,] | 
[V:2] [B,E,]z/ [A,/E,/][G,E,] | 
[V:1] [G3E3] | 
[V:2] [B,3E,3] | 
[V:1] [E3B,3G,3]- | 
[V:2] [=D,3E,3-] | 
[V:1] [E3B,3G,3E,3]- | 
[V:2] E,,2^D,, | 
[V:1] [E3B,3G,3E,3]- | 
[V:2] E,,2^E,, | 
[V:1] [E3B,3G,3E,3]- | 
[V:2] F,,2=E,, | 
[V:1] [EB,G,E,]x.[EB,] | 
[V:2] =D,,zG, | 
[V:1] .[GE].[BG].[eB] | 
[V:2] B,EG | 
[V:1] [g3e3] | 
[V:2] B3 | 
[V:1] [c'3f3] | 
[V:2] [=d3A3] | 
[V:1] .[bf].[ge].[ae] | 
[V:2] [=dG][dB][cA] | 
[V:1] .[f=d].[eB].[cA] | 
[V:2] [A=D][GE][EA,] | 
[V:1] [A3F3] | 
[V:2] =D3 & [A,2=D,2]x | 
[V:1] [B3E3] | 
[V:2] [=D3G,3E,3] | 
[V:1] .[cAEC]zz | 
[V:2] [A,E,A,,]zz | 
[V:1] !accent!E3- | 
[V:2] E,3- | 
[V:1] E3 | 
[V:2] E,3 | 
[V:1] CA3/e/ | 
[V:2] A,,E,3/E/ | 
[V:1] e3 | 
[V:2] E3 | 
[V:1] d2c | 
[V:2] D2C | 
[V:1] c3 | 
[V:2] C3 | 
[V:1] c3 | 
[V:2] C3 | 
[V:1] {/c}Fzz | 
[V:2] .[EA,]zz | 
[V:1] ^B/c/d/c/g/f/ | 
[V:2] z3[K:clef=treble] | 
[V:1] g/f/^e/f/d'/c'/ | 
[V:2] !accent![FEA,]zz | 
[V:1] ^a/b/d'/e'/e'' | 
[V:2] !accent![GEB,]zz | 
[V:1] d''/^b'/d''/=C/a'/e'/ | 
[V:2] !accent!BAc & [E3C3] | 
[V:1] d'/c'/a/e/d/c/ | 
[V:2] ezz[K:clef=bass] | 
[V:1] A/E/D/C/A,/E,/ | 
[V:2] z3 | 
[V:1] z3 | 
[V:2] .A,,,zz | 
[V:1] {/c}Fxx & [EC]zz | 
[V:2] .[F,^A,,]zz | 
[V:1] ^B/c/d/c/g/f/ | 
[V:2] z3[K:clef=treble] | 
[V:1] g/f/^e/f/d'/c'/ | 
[V:2] !accent![FE^A,]zz | 
[V:1] ^a/b/d'/e'/e'' | 
[V:2] !accent![GEB,]zz | 
[V:1] d''/^b'/d''/c''/^a'/e'/ | 
[V:2] !accent!B^Ac & [E3C3] | 
[V:1] d'/c'/^a/e/d/c/ | 
[V:2] ezz[K:clef=bass] | 
[V:1] ^A/E/D/C/^A,/E,/ | 
[V:2] z3 | 
[V:1] z3 | 
[V:2] .F,,,zz | 
[V:1] [A,B,]zz | 
[V:2] {/F,}B,,xx & D,,zz | 
[V:1] zzC/B,/ | 
[V:2] ^A,,/B,,/C,/B,,/z | 
[V:1] !accent![B,A,F,]zz | 
[V:2] [B,,D,,]zz | 
[V:1] !accent![CB,G,]zz | 
[V:2] [B,,E,,]zz | 
[V:1] EDF & [B,3A,3] | 
[V:2] E,D,F, & F,,3 | 
[V:1] Bzz | 
[V:2] B,zz | 
[V:1] F^EG & !accent![C3B,3] | 
[V:2] F,^E,G, & G,,3 | 
[V:1] czz | 
[V:2] Czz | 
[V:1] {/C}[FEF,]zz | 
[V:2] [A,,A,,,]zz | 
[V:1] ^E,/F,/G,/F,/G/F/ | 
[V:2] z3 | 
[V:1] !accent![FEC]zz | 
[V:2] [F,A,,]zz | 
[V:1] !accent![GE=D]zz | 
[V:2] [G,B,,]zz | 
[V:1] B^Ae & !accent![G2E2]x | 
[V:2] B,^A,E & C,2x | 
[V:1] =gzz | 
[V:2] =Gzz | 
[V:1] c^Bf & !accent![A2F2]x | 
[V:2] C^B,F & D,3 | 
[V:1] azz | 
[V:2] Axx | 
[V:1] [aA][gG][^b^B] & [f2d2]x | 
[V:2] [C,C,,][^B,,^B,,,][D,D,,] | 
[V:1] [d'd]zz | 
[V:2] [F,F,,][A,A,,][FF,] | 
[V:1] [^b^B][^^a^^A][^^c'^^c] & [g2^e2]x | 
[V:2] [D,D,,][^^C,^^C,,][^E,^E,,] | 
[V:1] [^e'^e]zz | 
[V:2] [G,G,,][B,B,,][GG,] | 
[V:1] [e'e][d'd][^^f'^^f] & [c'2^a2]x | 
[V:2] [G,G,,][^^F,^^F,,][^A,^A,,] | 
[V:1] [^a'^a]zz | 
[V:2] [CC,][EE,][^^F^^F,][K:clef=treble] | 
[V:1] z3 | 
[V:2] [^A^A,][cC][eE] | 
[V:1] zz[^^FE^A,] | 
[V:2] [^^f^^F]z[K:clef=bass][C,C,,] | 
[V:1] [G3D3G,3] | 
[V:2] [^B,,3^B,,,3] | 
[V:1] [c3F3C3] | 
[V:2] [A,,3A,,,3] | 
[V:1] [^B3F3^B,3] | 
[V:2] [G,,3G,,,3] | 
[V:1] [f3c3A3F3] | 
[V:2] [E,,3E,,,3] | 
[V:1] c^Bd & [f3A3F3] | 
[V:2] [E,,E,,,][D,,D,,,].[C,,C,,,] | 
[V:1] .[fAF]zz | 
[V:2] [^B,,,^B,,,,]zz | 
[V:1] z3 | 
[V:2] z3 | 
[V:1] !accent!A3- | 
[V:2] z3 | 
[V:1] A3 | 
[V:2] z3 | 
[V:1] A,3- | 
[V:2] z3 | 
[V:1] A,3 | 
[V:2] z3 | 
[V:1] G,3 | 
[V:2] z3 | 
[V:1] ^^F,2G, | 
[V:2] z3 | 
[V:1] ^B,2D | 
[V:2] z3 | 
[V:1] F2G | 
[V:2] z3 | 
[V:1] BA3/G/ | 
[V:2] z3 | 
[V:1] G3 | 
[V:2] C,,G,,C, | 
[V:1] E2F | 
[V:2] E,G,3/G,,/ | 
[V:1] G3 | 
[V:2] C,,G,,C, | 
[V:1] c2e | 
[V:2] E,G,3/G,,/ | 
[V:1] e3 | 
[V:2] C,,G,,C, | 
[V:1] d2c | 
[V:2] E,G,3/G,,/ | 
[V:1] c3 | 
[V:2] C,,G,,C, | 
[V:1] {/^B2c2d2}c2=B | 
[V:2] E,G,3/G,,/ | 
[V:1] B3 | 
[V:2] E,,B,,E, | 
[V:1] E2F | 
[V:2] G,B,3/B,,/ | 
[V:1] G3 | 
[V:2] E,,B,,E, | 
[V:1] B2A | 
[V:2] G,B,3/B,,/ | 
[V:1] G3- | 
[V:2] E,,B,,E, | 
[V:1] G3- | 
[V:2] G,B,3/B,,/ | 
[V:1] G3 | 
[V:2] G,,D,B, | 
[V:1] ^EF/G/A/B/ | 
[V:2] C,,C,B, | 
[V:1] c3 | 
[V:2] F,,C,F, | 
[V:1] A2B | 
[V:2] A,C3/C,/ | 
[V:1] c3 | 
[V:2] F,,C,F, | 
[V:1] f2a | 
[V:2] A,C3/C,/ | 
[V:1] a3 | 
[V:2] F,,=D,A, | 
[V:1] g2f | 
[V:2] =DA3/A,/ | 
[V:1] e3 | 
[V:2] F,,=D,A, | 
[V:1] =d2c | 
[V:2] =DA3/A,/ | 
[V:1] c2^B | 
[V:2] F,,^D,G, | 
[V:1] c2d | 
[V:2] E,,C,G,- | 
[V:1] e2c | 
[V:2] G,^^F,x & A,,^^F,A, | 
[V:1] A2^^F | 
[V:2] CE3/E,/- | 
[V:1] ^^F3- | 
[V:2] E,xx & G,,D,G, | 
[V:1] FGz/ g/ | 
[V:2] ^B,D3/D,/ | 
[V:1] a/g/=g/f/e/d/ | 
[V:2] G,,E,A, | 
[V:1] c/=c/B/A/G3//^^F// | 
[V:2] C^^FE, | 
[V:1] ^^FGz | 
[V:2] G,,D,G, | 
[V:1] z3 | 
[V:2] ^B,D3/D,/ | 
[V:1] D3 | 
[V:2] G,,D,^B, | 
[V:1] C2D | 
[V:2] ^A,D,^B, | 
[V:1] {/^B,2C2D2}C2^B, | 
[V:2] G,,D,G, | 
[V:1] D3- | 
[V:2] GG,D, | 
[V:1] D3 | 
[V:2] G,,D,F, | 
[V:1] D2D | 
[V:2] A,G,G,, | 
[V:1] G3 & D2E | 
[V:2] C,,G,,C, | 
[V:1] E2F & CzD | 
[V:2] E,G,3/G,,/ | 
[V:1] G3 & E3 | 
[V:2] C,,G,,C, | 
[V:1] [c2E2][eG] | 
[V:2] E,G,3/G,,/ | 
[V:1] e3 & A3- | 
[V:2] C,,A,,E, | 
[V:1] d2c & A3- | 
[V:2] A,E3/E,/ | 
[V:1] c3 & A3 | 
[V:2] C,EA, | 
[V:1] {/^B2c2d2}c2=B & A2A | 
[V:2] D,FB, | 
[V:1] B3 & G3 | 
[V:2] E,,B,,E, | 
[V:1] E2F & E2D | 
[V:2] G,B,3/B,,/ | 
[V:1] G3 & =D3 | 
[V:2] E,,B,,E,- | 
[V:1] B2A & =D2C | 
[V:2] B,EA,, & E,3- | 
[V:1] G3- & B,3 | 
[V:2] E,3 & E,,B,,E, | 
[V:1] G3 | 
[V:2] G,B,3/B,,/ | 
[V:1] ^D3 & B,3 | 
[V:2] G,,D,B, | 
[V:1] ^E.F/.G/.A/.B/ & B,2[EB,] | 
[V:2] C,,C,C | 
[V:1] {/B,-}!arpeggio![c3F3] & !arpeggio!B,A,C | 
[V:2] F,,C,F, | 
[V:1] A2B & F2G | 
[V:2] A,C3/C,/ | 
[V:1] c3 & A3 | 
[V:2] F,,C,F, | 
[V:1] f2a & A2c | 
[V:2] A,C3/C,/ | 
[V:1] a3 & =d3- | 
[V:2] F,,=D,A, | 
[V:1] g2f & d3 | 
[V:2] =DA3/A,/ | 
[V:1] f2e & A3 | 
[V:2] F,,=D,A, | 
[V:1] e=dc & F2A | 
[V:2] =DA3/A,/ | 
[V:1] c2^B & AGz | 
[V:2] F,,D,G, | 
[V:1] c2d & zzG | 
[V:2] E,,E,G, | 
[V:1] e2c & G^^Fz | 
[V:2] A,,E,A, | 
[V:1] A2^^F & zzC | 
[V:2] CE3/E,/- | 
[V:1] ^^FG2 & C^B,2 | 
[V:2] E,D,G, & G,,2x | 
[V:1] zzz/ g/ | 
[V:2] ^B,D3/D,/ | 
[V:1] a/g/=g/f/e/d/ | 
[V:2] G,,E,A, | 
[V:1] c/=c/B/A/G3//^^F// | 
[V:2] C^^FE, | 
[V:1] ^^FGz | 
[V:2] G,,D,G, | 
[V:1] z3 | 
[V:2] ^B,D3/D,/ | 
[V:1] D3 | 
[V:2] G,,D,^B, | 
[V:1] C2D | 
[V:2] ^A,D,^B, | 
[V:1] {/^B,2C2D2}C2^B, | 
[V:2] G,,D,G, | 
[V:1] D3- | 
[V:2] F,G,,G,,, | 
[V:1] D3 | 
[V:2] G,,F,G, | 
[V:1] ^E2F | 
[V:2] ^B,G,D, | 
[V:1] [^A3^E3B,3]- | 
[V:2] C,,C,G, | 
[V:1] [A3E3B,3] | 
[V:2] B,C3/C,/ | 
[V:1] [F3^A,3] | 
[V:2] C,,C,F, & xC,2- | 
[V:1] A2B & ^F3 | 
[V:2] ^A,C3/C,/ & C,2x | 
[V:1] {/B,}!arpeggio!c3 & !arpeggio!F2^E | 
[V:2] C,,C,G, | 
[V:1] {/^E}G3 & D2C- | 
[V:2] B,CC, | 
[V:1] [^A3F3C3] | 
[V:2] F,,^A,F, | 
[V:1] {/c}!arpeggio![B3F3D3] | 
[V:2] B,,DG, | 
[V:1] [^A3^E3B,3]- | 
[V:2] C,,C,G, | 
[V:1] [A3E3B,3] | 
[V:2] B,C3/C,/ | 
[V:1] [F3-^A,3] | 
[V:2] F,,C,F, & xC,2- | 
[V:1] ^A2^B & F3 | 
[V:2] ^A,C3/C,/ & C,2x | 
[V:1] [c3^A3] | 
[V:2] F,,F,^A, | 
[V:1] [d3^A3] | 
[V:2] ^B,DF, | 
[V:1] [^e3^A3] | 
[V:2] ^E,,^B,,^E, | 
[V:1]  [K:C] [^B3^^F3] ||  
[V:2]  [K:C] ^^G,^B,^B,, ||  
[V:1]  [K:F] [A3E3B,3]- [I:setbarnb 490]| 
[V:2]  [K:F] G,,C,G, | 
[V:1] [A3E3B,3] | 
[V:2] B,C3/C,/ | 
[V:1] [F3A,3] | 
[V:2] F,,C,F, & xC,2- | 
[V:1] A2B & F3 | 
[V:2] A,C3/C,/ & C,2x | 
[V:1] {/B,}!arpeggio!c3 & !arpeggio!F2E | 
[V:2] C,,C,G, | 
[V:1] {/E}G3 & D2C- | 
[V:2] B,CC, | 
[V:1] [A3F3C3] | 
[V:2] F,,A,F, | 
[V:1] {/!arpeggio!c}!arpeggio![B3F3D3] | 
[V:2] B,,DG, | 
[V:1] !arpeggio![A3E3B,3]- | 
[V:2] C,,C,G, | 
[V:1] [A3E3B,3] ||  
[V:2] B,CC, ||  
[V:1]  [K:E] [F2D2A,2]z [I:setbarnb 500]| 
[V:2]  [K:E] [^B,,^B,,,]B,,D, | 
[V:1] z3 | 
[V:2] F,A,^B,, | 
[V:1] z3 | 
[V:2] D,F,A, | 
[V:1] z3 | 
[V:2] ^B,DF, | 
[V:1] z3 | 
[V:2] A,^B,D[K:clef=treble] | 
[V:1] z3 | 
[V:2] FA^B, | 
[V:1] z3 | 
[V:2] DFA | 
[V:1] z3 | 
[V:2] ^BdF | 
[V:1] f3- | 
[V:2] z3[K:clef=bass] | 
[V:1] f2A, | 
[V:2] z3 | 
[V:1] ^^F,2G, | 
[V:2] z3 | 
[V:1] ^B,2D | 
[V:2] z3 | 
[V:1] F2G | 
[V:2] z3 | 
[V:1] BA3/G/ | 
[V:2] z3 | 
[V:1] G3 | 
[V:2] C,,G,,C, | 
[V:1] E2F | 
[V:2] E,G,3/G,,/ | 
[V:1] G3- | 
[V:2] C,,G,,C, | 
[V:1] c2e & G3 | 
[V:2] E,G,3/G,,/ | 
[V:1] e3 & A3- | 
[V:2] C,,A,,E, | 
[V:1] d2c & A3 | 
[V:2] A,E3/E,/ | 
[V:1] c3 & A3 | 
[V:2] C,EA, | 
[V:1] {/^B2c2d2}c2B & A2A | 
[V:2] D,FB, | 
[V:1] B3 & G3 | 
[V:2] E,,B,,E, | 
[V:1] E2F & E2D | 
[V:2] G,B,3/B,,/ | 
[V:1] G3 & =D3 | 
[V:2] E,,B,,E, | 
[V:1] B2A & C3 | 
[V:2] E,,A,,E, | 
[V:1] G3- & B,zz | 
[V:2] E,,B,,E, | 
[V:1] G3 | 
[V:2] G,B,3/B,,/ | 
[V:1] D3 & B,3 | 
[V:2] G,,D,B, | 
[V:1] ^E.F/.G/.A/.B/ & B,2[EB,] | 
[V:2] C,,C,C | 
[V:1] {/B,}!arpeggio![c3F3] & !arpeggio!B,A,C | 
[V:2] F,,C,F, | 
[V:1] [A2F2][BG] | 
[V:2] A,C3/C,/ | 
[V:1] [c3A3] | 
[V:2] F,,C,F, | 
[V:1] [f2A2][ac] | 
[V:2] A,C3/C,/ | 
[V:1] a3 & =d3- | 
[V:2] F,,=D,A, | 
[V:1] g2f & =d3 | 
[V:2] =DA3/A,/ | 
[V:1] f3 & A3- | 
[V:2] F,,=D,A, | 
[V:1] e2=d & A3 | 
[V:2] =DA3/A,/ | 
[V:1] =d3- & A3 | 
[V:2] F,,=D,A, | 
[V:1] =d3 & G2F | 
[V:2] =D,=DD, | 
[V:1] A3- & F3 | 
[V:2] =D,,=D,A, | 
[V:1] A3 & E2=D | 
[V:2] =CDD, | 
[V:1] [B3=G3]- | 
[V:2] =G,,=D,=G, | 
[V:1] [B3-G3] | 
[V:2] B,=D3/=D,/ | 
[V:1] B3- & =F3 | 
[V:2] =G,,=D,=G, | 
[V:1] {/E2=F2=G2}B3 & =F2E | 
[V:2] B,=D=G,, | 
[V:1] [=c3E3]- | 
[V:2] =C,,=G,,=C, | 
[V:1] [=c3E3]- | 
[V:2] =G,=C3/E/ | 
[V:1] [=c3E3]- | 
[V:2] E3 | 
[V:1] [=c3E3-] | 
[V:2] z3 | 
[V:1] A3- & E3 | 
[V:2] =F,,=C,=F, | 
[V:1] A3- & =F3- | 
[V:2] A,=C3/=C,/ | 
[V:1] A3- & =F3 | 
[V:2] =F,,=C,=F, | 
[V:1] {/E2=F2=G2}A3 & =F2E | 
[V:2] A,=C=C, | 
[V:1] B3- & E^D2- | 
[V:2] B,,,^F,,B,, | 
[V:1] B3 & D3 | 
[V:2] F,B,3/D/ | 
[V:1] [F3D3]- | 
[V:2] !accent!DB,F, | 
[V:1] [F3D3] | 
[V:2] B,,F,,B,, | 
[V:1] [G3F3B,3]- | 
[V:2] B,,,E,,B,, | 
[V:1] [G3F3B,3] | 
[V:2] E,B,3/E/ | 
[V:1] [G3-E3] | 
[V:2] !accent!EB,E, | 
[V:1] G3 & E2D | 
[V:2] B,,E,,B,, | 
[V:1] [c3G3C3]- | 
[V:2] B,,,^E,,B,, | 
[V:1] [c3G3C3] | 
[V:2] ^E,B,3/^E/ | 
[V:1] [G3C3]- | 
[V:2] !accent!^EB,^E, | 
[V:1] [G3C3] | 
[V:2] B,,^E,,B,, | 
[V:1] [A3G3C3]- | 
[V:2] B,,,F,,B,, | 
[V:1] [A3G3C3] | 
[V:2] F,B,3/F/ | 
[V:1] [A3F3]- | 
[V:2] !accent!FB,F, | 
[V:1] [A2F2][^AE] | 
[V:2] B,,F,,B,, | 
[V:1] [d3^A3D3]- | 
[V:2] B,,,^^F,,B,, | 
[V:1] [d3-A3D3] | 
[V:2] ^^F,B,3/^^A/ | 
[V:1] d3- & ^A3 | 
[V:2] !accent!^^AB,^^F, | 
[V:1] d3 & ^A2B | 
[V:2] B,,^^F,,B,, | 
[V:1] [d3B3-D3] | 
[V:2] B,,,G,,B,, | 
[V:1] [e3-B3E3-] | 
[V:2] G,B,3/G/ | 
[V:1] [e3B3E3] | 
[V:2] !accent!GB,G, | 
[V:1] [^e3=d3B3^E3] | 
[V:2] B,,G,,B,, | 
[V:1] [f3=c3A3D3]- | 
[V:2] B,,,=C,B,,, | 
[V:1] [f3=c3A3D3] | 
[V:2] =C,B,,,C, | 
[V:1] z/ A,/=C/D/=G/F/ | 
[V:2] B,,=CB,, | 
[V:1] E/D/F/A/=d/=c/ | 
[V:2] =CB,,C | 
[V:1] B/A/=c/^d/=g/f/ | 
[V:2] B,,=CB,, | 
[V:1] e/d/f/a/=d'/=c'/ | 
[V:2] =CB,,C | 
[V:1] b/a/=c'/^d'/=g'/f'/ | 
[V:2] B,,F,B,, | 
[V:1] e'/d'/f'/a'/=d''/=c''/ | 
[V:2] F,B,,F, | 
[V:1] b'/a'/=c''/g'/=g'/f'/ | 
[V:2] B,,A,B,, | 
[V:1] a'/=f'/e'/^d'/f'/=d'/ | 
[V:2] A,B,,A, | 
[V:1] c'/=c'/^d'/b/^a/=a/ | 
[V:2] B,,A,B,, | 
[V:1] =c'/g/=g/f/a/=f/ | 
[V:2] A,B,,A, | 
[V:1] e/d/f/=d/c/=c/ | 
[V:2] B,,[A,E,]B,, | 
[V:1] ^d/B/^A/=A/=c/G/ | 
[V:2] [A,E,]B,,[A,E,] | 
[V:1] =G/F/A/=F/E/D/ | 
[V:2] B,,[A,E,]B,,- | 
[V:1] F/=D/=C/B,/D/C/ | 
[V:2] [A,2E,2][A,E,] & B,,B,,2 | 
[V:1] B,/=C/B,/C/B,/C/ | 
[V:2] [A,^D,B,,]zz | 
[V:1] B,/=C/B,/C/B,/C/ | 
[V:2] z3 | 
[V:1] B,/=C/B,/C/B,/C/ | 
[V:2] B,,/=C,/B,,/C,/B,,/C,/ | 
[V:1] B,/=C/B,/C/B,/C/ | 
[V:2] B,,/=C,/B,,/C,/B,,/C,/ | 
[V:1] B,/=C/B,/C/B,/C/ | 
[V:2] !accent!^A,,/=C,/B,,/C,/B,,/C,/ | 
[V:1] B,/=C/B,/C/B,/C/ | 
[V:2] !accent!=A,,/=C,/B,,/C,/B,,/C,/ | 
[V:1] B,/^C/B,/C/B,/C/ | 
[V:2] !accent!G,,/^C,/B,,/C,/B,,/C,/ | 
[V:1] B,/C/B,/C/B,/C/ | 
[V:2] !accent!F,,/C,/B,,/C,/B,,/C,/ | 
[V:1] [B3E3-B,3] | 
[V:2] B,,/C,/B,,/C,/B,,/C,/ & E,,3- | 
[V:1] [c3E3-C3] | 
[V:2] B,,/C,/B,,/C,/B,,/C,/ & E,,3- | 
[V:1] [G3E3-G,3] | 
[V:2] B,,/C,/B,,/C,/B,,/C,/ & E,,3- | 
[V:1] [c3E3C3] | 
[V:2] B,,/C,/B,,/C,/B,,/C,/ & E,,3 | 
[V:1] [B3A3F3] & B,/C/B,/C/B,/C/ | 
[V:2] B,,/C,/B,,/C,/B,,/C,/ & D,,3 | 
[V:1] E,/C/B,/C/B,/C/ | 
[V:2] !accent!E,,/C,/B,,/C,/B,,/C,/ | 
[V:1] C,/C/B,/C/B,/C/ | 
[V:2] C,,/C,/B,,/C,/B,,/C,/ | 
[V:1] D,/C/B,/C/B,/C/ | 
[V:2] D,,/C,/B,,/C,/B,,/C,/ | 
[V:1] B,zz | 
[V:2] B,,,zz | 
[V:1] [A3D3] | 
[V:2] [B,3F,3B,,3] | 
[V:1] [GE]z/ [F/B,/][EB,] | 
[V:2] [B,E,]z/ [A,/E,/][G,E,] | 
[V:1] [G3E3] | 
[V:2] [B,3E,3] | 
[V:1] [F3E3^A,3] | 
[V:2] [F,3C,3] | 
[V:1] [FF,]zz | 
[V:2] .[F,,F,,,]zz | 
[V:1] !accent![fF]zz | 
[V:2] !accent![F,F,,]zz | 
[V:1] !accent![f'f]zz | 
[V:2] !accent![FF,]zz | 
[V:1] z[B,G,].[EB,] | 
[V:2] .[B,,B,,,]zG, | 
[V:1] .[GE].[BG].[eB] | 
[V:2] B,EG | 
[V:1] !accent![g3e3] | 
[V:2] B3 | 
[V:1] !accent![c'3^^f3] | 
[V:2] [e3^A3] | 
[V:1] .[bf].[g=d].[ac] | 
[V:2] [dB][B^E][AF] | 
[V:1] .[fc].[g^B].[ec] | 
[V:2] [A^D][GG,][GC] | 
[V:1] !accent![c3G3] | 
[V:2] [E3C3] | 
[V:1] !accent![d3B3] | 
[V:2] [F3B,3] | 
[V:1] .[eG]zz | 
[V:2] [B,E,]zz | 
[V:1] !accent!B,3- | 
[V:2] B,,3- | 
[V:1] B,3 | 
[V:2] B,,3 | 
[V:1] G,E3/B/ | 
[V:2] E,,B,,3/B,/ | 
[V:1] B3- | 
[V:2] B,3- | 
[V:1] B3- & A2G | 
[V:2] B,3- & A,2G, | 
[V:1] B3 & G3 | 
[V:2] B,3 & G,3 | 
[V:1] cde & F2G | 
[V:2] CDE & F,2G, | 
[V:1] [B3E3B,3] | 
[V:2] B,,/C,/B,,/C,/B,,/C,/ & E,,3- | 
[V:1] [c3E3C3] | 
[V:2] B,,/C,/B,,/C,/B,,/C,/ & E,,3- | 
[V:1] [G3E3G,3] | 
[V:2] B,,/C,/B,,/C,/B,,/C,/ & E,,3- | 
[V:1] {/D}!arpeggio![dD][c3/C3/][B/B,/] | 
[V:2] B,,/C,/B,,/C,/B,,/C,/ & E,,3 | 
[V:1] [BAFB,]z/ E,/D,/E,/ | 
[V:2] D,3/xx/ & D,,/E,,/D,,/E,,/D,,/E,,/ | 
[V:1] D,/E,/D,/E,/D,/E,/ | 
[V:2] D,,/E,,/D,,/E,,/D,,/E,,/ | 
[V:1] D,/E,/D,/E,/D,/E,/ | 
[V:2] D,,/E,,/D,,/E,,/D,,/E,,/ | 
[V:1] D,/E,/D,/E,/D,/E,/ | 
[V:2] D,,/E,,/D,,/E,,/D,,/E,,/ | 
[V:1] .=D,zz | 
[V:2] .=D,,zz[K:clef=treble] | 
[V:1] [c'3e3c3] | 
[V:2] [A3E3=D3] | 
[V:1] [beB]z/ [a/e/A/][geG] | 
[V:2] [GE=D]z/ [F/D/][ED] | 
[V:1] [b3e3B3] | 
[V:2] [G3E3=D3][K:clef=bass] | 
[V:1] [e3B3E3] | 
[V:2] !accent![=D3B,3G,3=D,3] | 
[V:1] !accent![GG,]zz | 
[V:2] !accent![G,,G,,,]zz | 
[V:1] !accent![gG]zz | 
[V:2] !accent![G,G,,]zz | 
[V:1] !accent![g'g]zz | 
[V:2] !accent![GG,]zz | 
[V:1] z[B,G,][EB,] | 
[V:2] [=D,,=D,,,]zG, | 
[V:1] .[GE].[BG].[eB] | 
[V:2] B,EG | 
[V:1] !accent![g3e3] | 
[V:2] B3 | 
[V:1] !accent![c'3f3] | 
[V:2] [=d3A3] | 
[V:1] .[b=f].[ge].[ae] | 
[V:2] [dG][dB][cA] | 
[V:1] .[f=d][eB][cA] | 
[V:2] [A=D][GE][EA,] | 
[V:1] !accent![A3F3] | 
[V:2] [=D3A,3=D,3] | 
[V:1] !accent![B3E3-] | 
[V:2] [=D3G,3E,3] | 
[V:1] .[cAEC]zz | 
[V:2] [A,E,A,,]zz | 
[V:1] !accent!E3- | 
[V:2] E,3- | 
[V:1] E3 | 
[V:2] E,3 | 
[V:1] CA3/e/ | 
[V:2] A,,E,3/E/ | 
[V:1] e3 | 
[V:2] E3 | 
[V:1] d2c | 
[V:2] D2C | 
[V:1] c3 | 
[V:2] C3 | 
[V:1] c3 | 
[V:2] C3 | 
[V:1] {/c}.Fzz | 
[V:2] [EA,]zz | 
[V:1] ^B/c/d/c/g/f/ | 
[V:2] z3[K:clef=treble] | 
[V:1] g/f/^e/f/d'/c'/ | 
[V:2] !accent![FEA,]zz | 
[V:1] ^a/b/d'/e'/e'' | 
[V:2] !accent![GEB,]zz | 
[V:1] d''/^b'/d''/c''/a'/e'/ | 
[V:2] !accent!BAc & [E3C3] | 
[V:1] d'/c'/a/e/d/c/ | 
[V:2] ezz[K:clef=bass] | 
[V:1] A/E/D/C/A,/E,/ | 
[V:2] z3 | 
[V:1] z3 | 
[V:2] A,,,zz | 
[V:1] {/C2A2}e3 | 
[V:2] {/A,,2E,2}E3 | 
[V:1] d2c | 
[V:2] D2C | 
[V:1] g3 | 
[V:2] G3 | 
[V:1] fe^B | 
[V:2] FE^B, | 
[V:1] e3 | 
[V:2] E3 | 
[V:1] d2c | 
[V:2] D2C | 
[V:1] c3 | 
[V:2] C3 | 
[V:1] c3 | 
[V:2] C3 | 
[V:1] {/c}Fzz | 
[V:2] [E^A,]zz | 
[V:1] ^B/c/d/c/g/f/ | 
[V:2] z3[K:clef=treble] | 
[V:1] g/f/^e/f/d'/c'/ | 
[V:2] !accent![FE^A,]zz | 
[V:1] ^a/b/^d'/e'/e'' | 
[V:2] !accent![GEB,]zz | 
[V:1] d''/^b'/d''/c''/^a'/e'/ | 
[V:2] B^Ac & [E3C3] | 
[V:1] d'/c'/^a/e/d/c/ | 
[V:2] ezz[K:clef=bass] | 
[V:1] ^A/E/D/C/^A,/E,/ | 
[V:2] z3 | 
[V:1] z3 | 
[V:2] .F,,,zz | 
[V:1] {/^A,2 ^A,2E2^A2-}[e3A3-] | 
[V:2] F,,2C, | 
[V:1] d2c & A3 | 
[V:2] F,3 | 
[V:1] {/^A}!arpeggio!g3 & !arpeggio!A3 | 
[V:2] !arpeggio!E3 & !arpeggio!F,3 | 
[V:1] f2e & ^A3 | 
[V:2] D2C & F,3 | 
[V:1] e3 & ^A3 | 
[V:2] !arpeggio!G3 & !arpeggio!F,3 | 
[V:1] d2c & ^A3 | 
[V:2] F2E & F,3 | 
[V:1] c3 & ^A3 | 
[V:2] E3 & F,3 | 
[V:1] c3 & F3 | 
[V:2] [^A,3E,3] | 
[V:1] .[fBF]zz | 
[V:2] .[B,D,]zz | 
[V:1] ^e/f/g/f/e/f/ | 
[V:2] F3 | 
[V:1] ^^f/g/^a/g/f/g/ | 
[V:2] ^A,3 & [F,3E,3]- | 
[V:1] ^^g/^a/b/a/g/a/ | 
[V:2] D2C & [F,3E,3] | 
[V:1] b/g'/f'/^e'/=e'/d'/ | 
[V:2] B,3 & [F,D,]zz | 
[V:1] c'/b/^a/g/f/^e/ | 
[V:2] G3 | 
[V:1] =e/d/c/B/^A/G/ | 
[V:2] !arpeggio![E3^A,3-F,3-C,3] | 
[V:1] F/ ^^F/^A/G/^F/E/ | 
[V:2] [A,3F,3] | 
[V:1] Dzz | 
[V:2] [F,B,,]zz | 
[V:1] d'/c'/b/^a/g/f/ | 
[V:2] z3 | 
[V:1] ^e/d/c/B/^A/G/ | 
[V:2] !arpeggio![B,3^E,3G,,3] | 
[V:1] F/^E/D/C/B,/G,/ | 
[V:2] Czz | 
[V:1] !accent!F,3- | 
[V:2] [D,3F,,3-] | 
[V:1] F,3- | 
[V:2] [D,3F,,3-] | 
[V:1] [C3^A,3] & [F,3-E,3] | 
[V:2] F,,3- | 
[V:1] [D2B,2]{/F}[E^A,] & F,3- | 
[V:2] D,2C, & F,,3 | 
[V:1] [DB,F,]zz | 
[V:2] B,,zz | 
[V:1] ^E/F/G/F/E/F/ | 
[V:2] F,3- | 
[V:1] ^^F/G/^A/G/F/G/ | 
[V:2] F,3 & E,,3- | 
[V:1] ^^G/^A/B/A/G/A/ | 
[V:2] !accent!F,3- & E,,3 | 
[V:1] B/g/f/^e/=e/d/ | 
[V:2] F,3 & !arpeggio![B,,3D,,3] | 
[V:1] c/B/^A/G/F/^E/ | 
[V:2] ^^F,3 | 
[V:1] =E/D/C/B,/^A,/G,/ | 
[V:2] !arpeggio!G,x2 & !arpeggio!^A,,3- | 
[V:1] F,/^^F,/^A,/G,/^F,/E,/ | 
[V:2] [E,3A,,3] | 
[V:1] .D,zz | 
[V:2] [=A,,^B,,,]zz[K:clef=treble] | 
[V:1] d''/f'/^^f'/g'/a'/d'/ | 
[V:2] d'/f/^^f/g/a/d/ | 
[V:1] e'/^e'/f'/^b/c'/^^c'/ | 
[V:2] e/^e/f/^B/c/^^c/ | 
[V:1] d'/f/^^f/g/a/d/ | 
[V:2] d/F/^^F/G/A/D/ | 
[V:1] e/^e/f/^B/c/^^c/ | 
[V:2] E/^E/F/^B,/C/^^C/[K:clef=bass] | 
[V:1] d/F/^^F/G/A/^B,/ | 
[V:2] D/F,/^^F,/G,/A,/^B,,/ | 
[V:1] C/^^C/D/F,/^^F,/G,/ | 
[V:2] C,/^^C,/D,/F,,/^^F,,/G,,/ | 
[V:1] A,/G,/^^F,/G,/B,/A,/ | 
[V:2] A,,/G,,/^^F,,/G,,/B,,/A,,/ | 
[V:1] .G,zz | 
[V:2] .G,,zz | 
[V:1] [GF^B,G,]zz | 
[V:2] [G,,G,,,]zz | 
[V:1] z3 | 
[V:2] z3 | 
[V:1] [f3^B3G3F3]- | 
[V:2] [D3G,3D,3G,,3]- | 
[V:1] [f2-B2G2F2]z/ [f/G/F/] | 
[V:2] [D2G,2D,2G,,2]z/ [^B,/G,/D,/] | 
[V:1] [e2c2G2E2][dGD] | 
[V:2] [C2G,2E,2][^B,G,F,] | 
[V:1] [d3G3D3] | 
[V:2] [^B,3G,3F,3] | 
[V:1] [d3G3D3] | 
[V:2] [^B,3G,3F,3] | 
[V:1] [d2G2F2][eGE] | 
[V:2] [G,,2G,,,2][C,C,,] | 
[V:1] [d3B3G3D3] | 
[V:2] [G,3G,,3] | 
[V:1] D3- | 
[V:2] [B,2G,2][^A,F,] & D,3 | 
[V:1] D3 | 
[V:2] [B,3G,3] & [D,3G,,3] | 
[V:1] [c3B3G3C3] | 
[V:2] [E,3E,,3] | 
[V:1] [g3e3B3G3] | 
[V:2] [C,,3C,,,3] | 
[V:1] [c3B3G3C3] | 
[V:2] [E,,3E,,,3] | 
[V:1] [d3^A3F3E3] | 
[V:2] [F,,3F,,,3] | 
[V:1] [B2D2]z | 
[V:2] [B,,2B,,,2]z | 
[V:1] [B,3-G,3E,3] | 
[V:2] [B,,3E,,3] | 
[V:1] [B,3F,3D,3] | 
[V:2] [B,,3F,,3] | 
[V:1] EDC | 
[V:2] [G,3E,3] & [B,,3E,,3] | 
[V:1] [B,3G,3E,3] | 
[V:2] [B,,3B,,,3]- | 
[V:1] [D3B,3F,3] | 
[V:2] [B,,3B,,,3] | 
[V:1] !accent![dd']zz | 
[V:2] !accent!Dzz | 
[V:1] !accent![D3D,3] | 
[V:2] D,,3 | 
[V:1] [D3^A,3-D,3] | 
[V:2] [D,,3^^F,,,3-] | 
[V:1] [E3A,3E,3] | 
[V:2] [E,,3F,,,3] | 
[V:1] [^^C3B,3-^^C,3] | 
[V:2] [^^C,,3G,,,3-] | 
[V:1] [D3B,3D,3] | 
[V:2] [D,,3G,,,3] | 
[V:1] [D3-C3-^^F,3D,3-] | 
[V:2] [^A,,3D,,3-^A,,,3] | 
[V:1] [D3-C3-G,3D,3] | 
[V:2] [B,,3D,,3B,,,3] | 
[V:1] [D3-C3-F,3D,3] | 
[V:2] [^^G,,3D,,3^^G,,,3] | 
[V:1] [D3C3D,3] & G,^^F,^A, | 
[V:2] [B,,B,,,][^A,,^A,,,][^^F,,^^F,,,] & D,,2x | 
[V:1] .[DD,]zz ||  
[V:2] [D,,D,,,]zz ||  
[V:1]  [K:Ab] !arpeggio![d3G3] & !arpeggio!F3 | 
[V:2]  [K:Ab] !arpeggio!E,3 | 
[V:1] [cA]z/ [B/E/][AE] | 
[V:2] [EA,]z/ [D/A,/][CA,] | 
[V:1] [c3A3] | 
[V:2] [E3A,3] | 
[V:1] [B3A3=D3]- | 
[V:2] B,3- & F,3 | 
[V:1] [B3A3=D3]- | 
[V:2] B,3- & =E,F,^F, | 
[V:1] [B3A3=D3]- | 
[V:2] B,3- & G,=F,C, | 
[V:1] [B3A3=D3] | 
[V:2] B,3 & B,,G,,F,, | 
[V:1] z.[EC].[AE] | 
[V:2] .E,,zC | 
[V:1] [cA][ec][ae] | 
[V:2] EAc | 
[V:1] [c'3a3] | 
[V:2] e3 | 
[V:1] [f'3_c'3] | 
[V:2] a3 | 
[V:1] .[e'b].[c'_g].[d'f] | 
[V:2] [ge][e=A][dB] | 
[V:1] .[b_f].[c'e].[ae] | 
[V:2] [d=G][cA][cF] | 
[V:1] [f3d3] | 
[V:2] [A3D3] | 
[V:1] [e3B3] | 
[V:2] [G3E3] | 
[V:1] .[cA]zz | 
[V:2] [EA,]zz | 
[V:1] !accent!E3- | 
[V:2] E,3- | 
[V:1] E3 | 
[V:2] E,3 | 
[V:1] CA3/e/ | 
[V:2] A,,E,3/E/ | 
[V:1] e3 | 
[V:2] E3 | 
[V:1] d2c | 
[V:2] D2C | 
[V:1] c3 | 
[V:2] C3 | 
[V:1] c3 | 
[V:2] C3 | 
[V:1] [c3G3-C3] | 
[V:2] C,3 & =E,,3- | 
[V:1] [d3G3D3] | 
[V:2] D,3 & =E,,3 | 
[V:1] [=B3A3-=B,3] | 
[V:2] =B,,3 & F,,3- | 
[V:1] [c3A3C3] | 
[V:2] C,3 & F,,3 | 
[V:1] [c3B3C3]- & =E3 | 
[V:2] [G,3G,,3] & C,3- | 
[V:1] [c3B3C3]- & F3 | 
[V:2] [A,3A,,3] & C,3- | 
[V:1] [c3B3C3]- & ^D3 | 
[V:2] C,3- & [^F,3^F,,3] | 
[V:1] [c3B3C3] & F=EG | 
[V:2] [A,A,,][G,G,,][=E,=E,,] & C,3 | 
[V:1] .[cC]zz | 
[V:2] .[C,C,,]zz | 
[V:1] [B3=E3] | 
[V:2] [=D3C,3] | 
[V:1] [=AF]z/ [G/C/][FC] | 
[V:2] [CF,]z/ [B,/F,/][=A,F,] | 
[V:1] [=A3F3] | 
[V:2] [C3F,3] | 
[V:1] [G3F3]- ||  
[V:2] [=B,3-=D,3] ||  
[V:1]  [K:E] [=G3=F3B,3] | 
[V:2]  [K:E] [=D,3=D,,3]- | 
[V:1] [^G3^E3B,3] | 
[V:2] [=D,3=D,,3] | 
[V:1] [A3F3^B,3] | 
[V:2] [=D,,3=D,,,3] | 
[V:1] [^AFC][C^A,].[FC] | 
[V:2] .[C,,C,,,]zA, | 
[V:1] .[^AF].[cA].[fc] | 
[V:2] CF^A | 
[V:1] !accent![^a3f3] | 
[V:2] c3 | 
[V:1] !accent![d'3=a3] | 
[V:2] [f3=c3] | 
[V:1] .[c'g].[^a=e].[bd] | 
[V:2] [^ec][c^^F][BG] | 
[V:1] .[gd].[^a^^c][fd] | 
[V:2] [B^E][^A^A,][AD] | 
[V:1] !accent![d3^A3] | 
[V:2] [D3F3] | 
[V:1] !accent![^e3c3] | 
[V:2] [G3C3] | 
[V:1] .[f^d]zz | 
[V:2] [A^B,]zz | 
[V:1] A,3- | 
[V:2] A,,3- | 
[V:1] A,2G,/=G,/ | 
[V:2] A,,2G,,/=G,,/ | 
[V:1] F,/=F,/E,/D,/=D,/C,/ | 
[V:2] F,,/=F,,/E,,/D,,/=D,,/C,,/ | 
[V:1] .^B,,zz | 
[V:2] ^B,,,zz | 
[V:1] d2^E | 
[V:2] D2^E, | 
[V:1] F2G | 
[V:2] F,2G, | 
[V:1] B2A | 
[V:2] B,2A, | 
[V:1] [G3^E3B,3] | 
[V:2] C,,^B,,,/C,,/^B,,/C,/ | 
[V:1] [A3^E3B,3] | 
[V:2] =D,/C,/^B,,/C,/=D/C/ | 
[V:1] GA,/C/A/G/ & ^E3 | 
[V:2] .C,zz | 
[V:1] F/^^F/G/A/^A/B/ | 
[V:2] [F3-C3-A,3] | 
[V:1] ^B/c/^^F/G/e/d/ | 
[V:2] FE.C, & [C2G,2]x | 
[V:1] c/d/e/^e/f/^^f/ | 
[V:2] [ECG,]zz | 
[V:1] g/a/b/a/f'/e'/ | 
[V:2] E=DF,, & [A,2F,2]x | 
[V:1] =d'/e'/f'/=g'/^g'/a'/ | 
[V:2] .[=DA,F,]zz | 
[V:1] ^^f'/g'/^a'/g'/^e''/d''/ | 
[V:2] [C3^E,3G,,3] | 
[V:1] c''/^b'/^a'/g'/f'/^e'/ | 
[V:2] G,3 | 
[V:1] d'/c'/^b/^a/g/^^f/ | 
[V:2] ^E3 | 
[V:1] ^f/^e/d/c/^B/^A/ | 
[V:2] F3 | 
[V:1] G/^A/^B/c/d/^e/ | 
[V:2] {/G,,}[^E3^B,3-G,3-F,3-] | 
[V:1] f/g/^b/^a/g/f/ | 
[V:2] [D3B,3G,3F,3] | 
[V:1] ^e/g/^e'/^b/d'/c'/ | 
[V:2] !arpeggio![DG,C,]^EG, | 
[V:1] g/^e/d/c/G/C/ | 
[V:2] Czz | 
[V:1] [^A3^^F3-C3-] | 
[V:2] !accent!D,,^^C,,/D,,/^^C,/D,/ | 
[V:1] [B3F3-C3-] | 
[V:2] E,/D,/^^C,/D,/E/D/ | 
[V:1] ^AB,/D/B/^A/ & F3 | 
[V:2] .D,zz | 
[V:1] G/A/^A/B/^B/c/ | 
[V:2] [G3-D3B,3] | 
[V:1] ^^c/d/^A/d/^a/g/ | 
[V:2] !accent![D2^A,2]D, & GFx | 
[V:1] f/g/^a/b/^b/c'/ | 
[V:2] .[FD^A,]zz | 
[V:1] ^^c'/d'/e'/b/g'/f'/ | 
[V:2] FEG,, & !accent![B,3G,3] | 
[V:1] e'/f'/g'/^^g'/^a'/b'/ | 
[V:2] [EB,E,]zz | 
[V:1]  [K:Eb] =a'/b'/c''/b'/e''/c''/ | 
[V:2]  [K:Eb] !arpeggio![E3G,3B,,3] | 
[V:1] b'/c''/b'/=a'/_a'/g'/ | 
[V:2] B,3 | 
[V:1] f'/e'/D/c'/b/=a/ | 
[V:2] G3 | 
[V:1] _a/g/f/e/d/c/ | 
[V:2] A3 | 
[V:1] B/c/d/e/f/g/ | 
[V:2] {/B,,}[G3D3-B,3-A,3-] | 
[V:1] a/b/d'/c'/b/a/ | 
[V:2] [F3=D3B,3A,3] | 
[V:1] g/b/g'/d'/f'/e'/ | 
[V:2] !arpeggio![FB,E,]GB, | 
[V:1] b/g/e/B/E ||  
[V:2] Ezz ||  
[V:1]  [K:E] f3/g3/ & f/A/B/g/A/B/ | 
[V:2]  [K:E] B,,DB, | 
[V:1] e3/f3/ & e/G/B/f/G/^A/ | 
[V:2] E,EC & E,3 | 
[V:1] d3/e3/ & d/F/^A/e/F/G/ | 
[V:2] F,DB, & F,3 | 
[V:1] c3/d3/ & c/E/G/d/E/F/ | 
[V:2] .F,,^A,F, | 
[V:1] c3/B3/ & c/E/F/B/D/F/ | 
[V:2] B,,B,F, | 
[V:1] B/d/f/b/b'/g'/ | 
[V:2] DB,[K:clef=treble]F | 
[V:1] f'/c'/b/g/f/c/ | 
[V:2] !accent!dzz | 
[V:1] B/G/F/C/!accent!B, | 
[V:2] z3[K:clef=bass] | 
[V:1] b/ x/x2 & f3/g3/ | 
[V:2] .B,,DB, | 
[V:1] e3/f3/ & e/G/B/f/G/^A/ | 
[V:2] E,EC & E,3 | 
[V:1] fx2 & d3/e3/ | 
[V:2] F,DB, & F,3 | 
[V:1] c3/d3/ & c/E/G/d/E/F/ | 
[V:2] .F,,^A,F, | 
[V:1] c3/B3/ & c/E/F/B/D/F/ | 
[V:2] B,,B,F, | 
[V:1] B/d/f/b/b'/g'/ | 
[V:2] DB,[K:clef=treble]F | 
[V:1] f'/c'/b/g/f/c/ | 
[V:2] !accent!fzz[K:clef=bass] | 
[V:1] B/G/F/C/!accent!B, | 
[V:2] z3 | 
[V:1] b/ x/x2 & f3/g3/ | 
[V:2] .B,,DB, | 
[V:1] ex/ g/x & e/G/B/g/G/B/ | 
[V:2] E,EB, | 
[V:1] g/ x/x2 & d3/e3/ | 
[V:2] G,,^B,G, | 
[V:1] c3/e3/ & c/E/G/e/E/G/ | 
[V:2] C,CG, | 
[V:1] e/ x/x2 & B3/cx/ | 
[V:2] E,,G,E,- | 
[V:1] A3/G3/ & A/C/E/G/B,/E/ | 
[V:2] E,E,2 & A,,2B,, | 
[V:1] F/A,/E/F/A/e/ | 
[V:2] E,zz & C,zz | 
[V:1] a/f/e/A/F/E/ | 
[V:2] z3 | 
[V:1] c3 & c/^E/G/F/=E/C/ | 
[V:2] [A,,3A,,,3] | 
[V:1] A3/G3/ & A/C/E/G/B,/E/ | 
[V:2] [E,2E,,2][B,,B,,,] | 
[V:1] F/A,/E/F/A/e/ | 
[V:2] [C,C,,]zz | 
[V:1] c'/f/e/A/F/E/ | 
[V:2] [F,,3F,,,3] | 
[V:1] e3 & e/G/B/A/F/E/ | 
[V:2] [C,,2C,,,2][A,,A,,,] | 
[V:1] d2c & d/G/B/A/F/E/ | 
[V:2] [E,2E,,2][F,F,,] | 
[V:1] B2A & B/^E/G/F/=E/A,/ | 
[V:2] [A,2A,,2][CC,] | 
[V:1] G2F & G/D/F/E/C/F,/ | 
[V:2] [B,2B,,2][E,A,,] | 
[V:1] F3 & F/C/E/F,/C/E/ | 
[V:2] [E,3A,,3] | 
[V:1] G3 & G/=D/E/G,/D/E/ | 
[V:2] [B,,3B,,,3] | 
[V:1] B3 & B/C/E/A,/C/E/ | 
[V:2] [C,3C,,3] | 
[V:1] A3 & A/C/F/A,/C/F/ | 
[V:2] [D,3D,,3] | 
[V:1] G3 & G/^B,/F/G,/B,/F/ | 
[V:2] [G,,3G,,,3] | 
[V:1] G3 & G/=B,/^E/G,/B,/E/ | 
[V:2] [C,3C,,3] | 
[V:1] F2x & F/^A,/E/F,/A,/E/ | 
[V:2] [F,,3F,,,3] | 
[V:1] Gx3/x/ & G/B,/D/=A,/F/A/ | 
[V:2] [B,,3B,,,3] | 
[V:1] .[BE]zz | 
[V:2] [G,B,,]C/B,/C/B,/ | 
[V:1] z3 | 
[V:2] C/B,/C/B,/C/B,/ | 
[V:1] [G3E3] | 
[V:2] C/B,/C/B,/C/B,/ | 
[V:1] G2F & [D3A,3] | 
[V:2] C/B,/C/B,/C/B,/ | 
[V:1] [BEG,][c/A/][B/G/][c/A/][B/G/] | 
[V:2] C/B,/zz | 
[V:1] [c/A/][B/G/][c/A/][B/G/][c/A/][B/G/] | 
[V:2] .[B,,B,,,]zz | 
[V:1] [e3G3] | 
[V:2] C/B,/C/B,/C/B,/ | 
[V:1] f2^^f & [d3A3] | 
[V:2] C/B,/C/B,/C/B,/ | 
[V:1] !arpeggio![geG][c/A/][B/G/][c/A/][B/G/] | 
[V:2] C/B,/xx & E,zz | 
[V:1] [c/A/][B/G/][c/A/][B/G/][c/A/][B/G/] | 
[V:2] .[B,,B,,,]zz | 
[V:1] [G3E3] | 
[V:2] C/B,/C/B,/C/B,/ | 
[V:1] [=G2E2^A,2][FD=A,] | 
[V:2] C/B,/C/B,/C/B,/ | 
[V:1] !arpeggio![BEG,][c/A/][B/G/][c/A/][B/G/] | 
[V:2] C/B,/zz | 
[V:1] [c/A/][B/G/][c/A/][B/G/][c/A/][B/G/] | 
[V:2] .[B,,B,,,]zz | 
[V:1] !arpeggio![b3e3G3] | 
[V:2] C/B,/C/B,/C/B,/ | 
[V:1] f2^^f & [b3d3A3] | 
[V:2] C/B,/C/B,/C/B,/ | 
[V:1] [bgeG][c/A/][B/G/][c/A/][B/G/] | 
[V:2] C/B,/xx & E,zz | 
[V:1] [c/A/][B/G/][c/A/][B/G/][c/A/][B/G/] | 
[V:2] .[B,,B,,,]zz | 
[V:1] !arpeggio![b3e3G3] | 
[V:2] C/B,/C/B,/C/B,/ | 
[V:1] b-b3/b/ & [f2d2A2]^^f | 
[V:2] C/B,/C/B,/C/B,/ | 
[V:1] c'/b/ [c/A/][B/G/][c/A/][B/G/] & [geG]x2 | 
[V:2] [EE,]zz | 
[V:1] [c/A/][B/G/][c/A/][B/G/][c/A/][B/G/] | 
[V:2] .[B,,B,,,]zz | 
[V:1] [b3G3] & e2^e | 
[V:2] C/B,/C/B,/C/B,/ | 
[V:1] b-b3/b/ & [f2d2A2]^^f | 
[V:2] C/B,/C/B,/C/B,/- | 
[V:1] c'b[eB] | 
[V:2] !accent![geGB,]zG | 
[V:1] [ge][bg][e'b] | 
[V:2] Beg | 
[V:1] [e'3g'3] | 
[V:2] B3 | 
[V:1] [c''3=g'3] | 
[V:2] [e3^A3] | 
[V:1] [b'f'][g'=d'][a'c'] | 
[V:2] [Bd][B^E][AF] | 
[V:1] [f'c'][g'^b][e'c'] | 
[V:2] [A^D][G,G][GC] | 
[V:1] [c'^a][d'b][e'^g] | 
[V:2] [=GE][FB,][EC] | 
[V:1] [c'=g][bf][^g=d] | 
[V:2] [E^A,][DB,][B^E] | 
[V:1] [ac][fc][g^B] | 
[V:2] [AF][A^D][GG,] | 
[V:1] [ec][d^A][BG] | 
[V:2] [GC][^^FD][DG,] | 
[V:1] [^A^E][FD][GE] | 
[V:2] [^^C^A,][A,D,][^CC,] | 
[V:1] [=AF][=EC][FC] | 
[V:2] [CF,]A,-[A,E,-A,,] | 
[V:1] [GEB,]zz | 
[V:2] [E,E,,]zz | 
[V:1] !accent!C/E/[c/G/]E/C/E/ | 
[V:2] z3 | 
[V:1] !accent!G,/B,/[G/E/]B,/G,/B,/ | 
[V:2] E,,,B,,,E,, | 
[V:1] C/E/[c/G/]E/C/E/ | 
[V:2] B,,G,E,, | 
[V:1] B,/E/[B/G/]E/B,/E/ | 
[V:2] E,,,B,,,E,, | 
[V:1] D/G/[d/B/]G/D/G/ | 
[V:2] B,,G,E,, | 
[V:1] F/G/[f/B/]G/F/G/ | 
[V:2] E,,,B,,,E,, | 
[V:1] E/G/[e/B/]G/E/G/ | 
[V:2] B,,G,B,, | 
[V:1] A/B/[a/e/]B/A/B/ | 
[V:2] E,,3// B,,3// A,3// B,,3// | 
[V:1] G/B/[g/e/]B/G/B/ | 
[V:2] E,,3// B,,3// G,3// B,,3// | 
[V:1] c/e/[c'/g/]e/c/e/ | 
[V:2] E,,3// B,,3// G,3// B,,3// | 
[V:1] B/e/[b/g/]e/B/e/ | 
[V:2] E,,3// B,,3// G,3// B,,3// | 
[V:1] ^A/e/[^a/g/]e/A/e/ | 
[V:2] E,,3// B,,3// G,3// B,,3// | 
[V:1] B/e/[b/g/]e/B/e/ | 
[V:2] E,,3// B,,3// G,3// B,,3// | 
[V:1] c/e/g/c'/[c''g'] | 
[V:2] E,,3// B,,3// G,3// B,,3// | 
[V:1] G/B/e/g/[g'e'] | 
[V:2] E,,3// B,,3// G,3// B,,3// | 
[V:1] [B,A,]zz | 
[V:2] .B,,,zz | 
[V:1] !accent![a3d3B3A3] | 
[V:2] [F3B,3F,3] | 
[V:1] [geBG]>[fF][eBE] | 
[V:2] [E,,E,,,]z[B,G,B,,] | 
[V:1] [g3e3G3] | 
[V:2] [=CE,=C,]>[B,B,,][^A,^A,,] | 
[V:1] !accent![B,3=A,3] | 
[V:2] [B,,3B,,,3] | 
[V:1] [a3d3B3A3] | 
[V:2] [FB,F,][GG,][B,B,,] | 
[V:1] [geBG]>[fF][eBE] | 
[V:2] [E,,E,,,]z[B,G,B,,] | 
[V:1] [g3e3G3] | 
[V:2] [=CE,=C,]>[B,B,,][^A,^A,,] | 
[V:1] !accent![g3e3G3] | 
[V:2] [=CE,=C,]>[B,B,,][^A,^A,,] | 
[V:1] [=c'=c][bB][^a^A] | 
[V:2] [=CE,=C,][B,B,,][^A,^A,,] | 
[V:1] [^c'e^c][bB][^a^A] | 
[V:2] [^C^C,][B,B,,][^A,^A,,][K:clef=treble] | 
[V:1] [c''c'][b'b][^a'^a] | 
[V:2] [cC][BB,][^A^A,] | 
[V:1] [c''c'][b'b][^^f'^^f] | 
[V:2] [cC][BB,][^^F^^F,] | 
[V:1] [a'a][g'g][d'd] | 
[V:2] [AA,][GG,][K:clef=bass][DD,] | 
[V:1] [f'f][e'e][gG] | 
[V:2] [FF,][EE,][G,G,,] | 
[V:1] [c'c][bB][^^f^^F] | 
[V:2] [CC,][B,B,,][^^F,^^F,,] | 
[V:1] [aA][gG][dD] | 
[V:2] [A,A,,][G,G,,][D,D,,] | 
[V:1] [fF][eE][GG,] | 
[V:2] [F,F,,][E,E,,][G,,G,,,] | 
[V:1] [cC]zz | 
[V:2] [C,C,,]zz | 
[V:1] !accent![D3B,3A,3D,3] | 
[V:2] [B,,3B,,,3] | 
[V:1] .[EG,E,](3:2:6F,,/G,,/A,,/B,,/C,/D,/ | 
[V:2] [E,,E,,,](3:2:6F,,,/G,,,/A,,,/B,,,/C,,/D,,/ | 
[V:1] (3:2:6E,/F,/G,/A,/B,/C/(3D/E/F/ | 
[V:2] (3:2:6E,,/F,,/G,,/A,,/B,,/C,/(3D,/E,/F,/ | 
[V:1] (3:2:6G/A/B/c/d/e/(3f/g/a/ | 
[V:2] (3:2:6G,/A,/B,/C/D/E/(3F/G/A/ | 
[V:1] (5:4:10B/8c/8d'/8e'/8f'/8g'/8a'/8b'/8c''/8d''/8 | 
[V:2] (5:4:10B,/8C/8D/8E/8F/8G/8A/8B/8c/8d/8 | 
[V:1] e''zz | 
[V:2] ezz | 
[V:1] [g3e3B3G3] | 
[V:2] [E3B,3E,3] | 
[V:1] !fermata!E,3 |]  
[V:2] !fermata![E,,3E,,,3] |]
